symbols/iconen/textiel.svg

<?xml version="1.0" encoding="UTF-8" standalone="no"?>
<svg
   xmlns:dc="http://purl.org/dc/elements/1.1/"
   xmlns:cc="http://creativecommons.org/ns#"
   xmlns:rdf="http://www.w3.org/1999/02/22-rdf-syntax-ns#"
   xmlns:svg="http://www.w3.org/2000/svg"
   xmlns="http://www.w3.org/2000/svg"
   viewBox="0 0 226.772 264.56668"
   height="264.56668"
   width="226.772"
   xml:space="preserve"
   id="svg2"
   version="1.1"><metadata
     id="metadata8"><rdf:RDF><cc:Work
         rdf:about=""><dc:format>image/svg+xml</dc:format><dc:type
           rdf:resource="http://purl.org/dc/dcmitype/StillImage" /></cc:Work></rdf:RDF></metadata><defs
     id="defs6"><clipPath
       id="clipPath18"
       clipPathUnits="userSpaceOnUse"><path
         id="path16"
         d="M 0,198.425 H 170.079 V 0 H 0 Z" /></clipPath><clipPath
       id="clipPath36"
       clipPathUnits="userSpaceOnUse"><path
         id="path34"
         d="M 0,198.425 H 170.079 V 0 H 0 Z" /></clipPath><clipPath
       id="clipPath64"
       clipPathUnits="userSpaceOnUse"><path
         id="path62"
         d="M 0,198.425 H 170.079 V 0 H 0 Z" /></clipPath></defs><g
     transform="matrix(1.3333333,0,0,-1.3333333,0,264.56667)"
     id="g10"><g
       id="g12"><g
         clip-path="url(#clipPath18)"
         id="g14"><g
           transform="translate(165.8226,198.4252)"
           id="g20"><path
             id="path22"
             style="fill:#8d198f;fill-opacity:1;fill-rule:nonzero;stroke:none"
             d="m 0,0 h -161.566 c -2.351,0 -4.257,-1.905 -4.257,-4.256 v -156.151 -5.416 -26.528 c 0,-3.355 2.72,-6.074 6.074,-6.074 H -1.818 c 3.355,0 6.074,2.719 6.074,6.074 v 26.528 5.416 156.151 C 4.256,-1.905 2.351,0 0,0" /></g><path
           id="path24"
           style="fill:#ffffff;fill-opacity:1;fill-rule:nonzero;stroke:none"
           d="M 8.5,189.925 H 161.579 V 38.018 H 8.5 Z" /></g></g><g
       transform="translate(53.3396,25.2582)"
       id="g26"><path
         id="path28"
         style="fill:#ffffff;fill-opacity:1;fill-rule:nonzero;stroke:none"
         d="M 0,0 H -4.399 V 2.8 H 7.697 V 0 H 3.299 V -13.446 H 0 Z" /></g><g
       id="g30"><g
         clip-path="url(#clipPath36)"
         id="g32"><g
           transform="translate(64.0398,19.2348)"
           id="g38"><path
             id="path40"
             style="fill:#ffffff;fill-opacity:1;fill-rule:nonzero;stroke:none"
             d="M 0,0 H 6.223 C 6.023,1.625 4.773,2.725 3.099,2.725 1.424,2.725 0.175,1.625 0,0 m -3.125,-1.249 c 0,3.824 2.575,6.473 6.249,6.473 3.674,0 6.224,-2.624 6.224,-6.399 0,-0.3 -0.051,-0.774 -0.101,-1.099 H 0 c 0.225,-1.674 1.649,-2.799 3.474,-2.799 1.349,0 2.524,0.5 3.298,1.399 l 1.875,-1.824 c -1.125,-1.45 -3.074,-2.225 -5.323,-2.225 -3.8,0 -6.449,2.674 -6.449,6.474" /></g><g
           transform="translate(78.239,18.0356)"
           id="g42"><path
             id="path44"
             style="fill:#ffffff;fill-opacity:1;fill-rule:nonzero;stroke:none"
             d="m 0,0 -3.949,6.123 h 3.874 l 2.05,-3.699 h 0.049 l 2.1,3.699 H 7.648 L 3.725,0.25 7.873,-6.224 H 4.024 l -2.299,4.049 h -0.05 l -2.324,-4.049 h -3.499 z" /></g><g
           transform="translate(88.865,16.2357)"
           id="g46"><path
             id="path48"
             style="fill:#ffffff;fill-opacity:1;fill-rule:nonzero;stroke:none"
             d="M 0,0 V 5.349 H -2.125 V 7.923 H -1 c 1.024,0 1.425,0.4 1.425,1.425 v 1.924 H 3.074 V 7.923 H 6.073 V 5.349 H 3.074 V 0 c 0,-1.199 0.625,-1.874 1.775,-1.874 0.349,0 0.774,0.05 1.024,0.125 v -2.6 C 5.498,-4.449 4.799,-4.523 4.249,-4.523 1.449,-4.523 0,-2.975 0,0" /></g><path
           id="path50"
           style="fill:#ffffff;fill-opacity:1;fill-rule:nonzero;stroke:none"
           d="m 97.315,24.159 h 3.099 V 11.812 h -3.099 z m 1.55,1.575 c -1.075,0 -1.85,0.75 -1.85,1.799 0,1.049 0.775,1.799 1.85,1.799 1.074,0 1.85,-0.75 1.85,-1.799 0,-1.049 -0.776,-1.799 -1.85,-1.799" /><g
           transform="translate(106.114,19.2348)"
           id="g52"><path
             id="path54"
             style="fill:#ffffff;fill-opacity:1;fill-rule:nonzero;stroke:none"
             d="M 0,0 H 6.223 C 6.023,1.625 4.773,2.725 3.099,2.725 1.424,2.725 0.175,1.625 0,0 m -3.125,-1.249 c 0,3.824 2.575,6.473 6.249,6.473 3.674,0 6.224,-2.624 6.224,-6.399 0,-0.3 -0.051,-0.774 -0.101,-1.099 H 0 c 0.225,-1.674 1.649,-2.799 3.474,-2.799 1.349,0 2.524,0.5 3.299,1.399 l 1.875,-1.824 c -1.125,-1.45 -3.075,-2.225 -5.324,-2.225 -3.8,0 -6.449,2.674 -6.449,6.474" /></g><path
           id="path56"
           style="fill:#ffffff;fill-opacity:1;fill-rule:nonzero;stroke:none"
           d="m 118.04,29.932 h 3.099 v -18.12 h -3.099 z" /></g></g><g
       id="g58"><g
         clip-path="url(#clipPath64)"
         id="g60"><g
           transform="translate(148.6635,88.0287)"
           id="g66"><path
             id="path68"
             style="fill:#231f20;fill-opacity:1;fill-rule:nonzero;stroke:none"
             d="m 0,0 c -0.743,-1.239 -1.931,-2.099 -3.342,-2.417 l -2.571,-0.582 c -1.396,-0.364 -2.706,-0.909 -3.911,-1.605 0.481,1.121 0.868,2.275 1.007,3.615 0.128,1.239 -0.033,2.543 -0.388,3.825 l -0.983,32.607 -2,-0.06 0.844,-28.001 c -0.984,1.436 -2.15,2.629 -3.311,3.363 -1.366,0.862 -3.016,1.443 -5.104,2.179 -1.735,0.611 -3.701,1.304 -6.071,2.346 -0.516,0.226 -1.072,0.498 -1.741,0.849 -0.43,0.227 -0.754,0.479 -0.964,0.749 -0.304,0.392 -0.501,0.841 -0.591,1.32 0.337,0.374 0.828,0.616 1.395,0.617 l 0.245,0.014 c 0.434,0.005 0.948,-0.014 1.503,-0.048 5.879,-0.36 6.849,-0.348 7.004,-0.331 l 0.747,0.064 5.723,28.475 -1.961,0.394 -5.412,-26.923 c -0.838,0.029 -2.552,0.108 -5.979,0.318 -0.601,0.037 -1.128,0.053 -1.68,0.05 l -0.243,-0.014 c -0.287,0 -0.565,-0.038 -0.834,-0.099 l 7.993,19.297 c 4.355,10.285 9.399,21.801 10.712,24.194 1.816,-3.523 4.143,-12.053 3.89,-18.341 C -6.41,36.337 -6.452,24.383 -3.323,16.357 -2.172,13.402 -0.828,9.161 0.561,4.093 0.944,2.695 0.745,1.241 0,0 m -13.046,-0.552 c -0.131,-1.261 -0.651,-2.348 -1.37,-3.852 -1.024,-2.141 -2.299,-4.805 -3.067,-9.255 -0.213,-1.239 -0.395,-5.711 -0.287,-7.691 l -9.547,5.157 c -1.405,0.758 -2.099,2.421 -1.652,3.953 l 6.329,21.675 c 0.52,-0.187 1.009,-0.36 1.468,-0.521 1.836,-0.647 3.286,-1.158 4.246,-1.764 1.768,-1.117 4.175,-4.843 3.88,-7.702 m 17.708,5.77 c -1.448,5.281 -2.802,9.549 -4.024,12.684 -2.874,7.372 -2.753,19.386 -2.413,27.782 0.309,7.638 -2.535,17.232 -4.619,20.943 -0.552,0.985 -1.484,1.678 -2.56,1.942 v 1.706 c 1.324,0.381 2.301,1.59 2.301,3.034 0,1.749 -1.423,3.172 -3.172,3.172 -1.749,0 -3.172,-1.423 -3.172,-3.172 0,-1.302 0.79,-2.421 1.916,-2.909 v -1.888 c -0.753,-0.23 -1.433,-0.677 -1.94,-1.308 -1.338,-1.662 -8.501,-18.417 -11.527,-25.561 l -8.035,-19.435 c -0.559,-1.054 -0.854,-2.24 -0.854,-3.44 0,-1.649 0.534,-3.206 1.542,-4.507 0.585,-0.753 1.374,-1.394 2.384,-1.926 0.718,-0.378 1.363,-0.691 1.97,-0.958 0.313,-0.138 0.621,-0.271 0.923,-0.398 l -6.433,-22.028 c -1.006,-3.443 0.556,-7.18 3.712,-8.885 l 10.005,-5.402 c 0.572,-0.289 1.193,-0.432 1.813,-0.431 0.797,0 1.591,0.237 2.272,0.703 1.215,0.832 1.882,2.26 1.74,3.728 -0.053,0.555 -0.052,1.73 -0.02,2.969 h 0.011 c 0,5.29 3.57,9.918 8.611,11.237 l 2.502,0.566 c 2.555,0.577 4.704,2.131 6.051,4.376 1.348,2.247 1.708,4.876 1.016,7.406" /></g><g
           transform="translate(106.6137,132.1678)"
           id="g70"><path
             id="path72"
             style="fill:#231f20;fill-opacity:1;fill-rule:nonzero;stroke:none"
             d="m 0,0 -13.973,1.412 -2.375,-54.748 H -60.735 L -63.966,1.409 -77.812,0 l -6.984,12.571 22.029,13.076 c 1.141,0.677 2.445,1.037 3.772,1.039 l 4.464,0.011 c 2.046,-6.525 8.311,-11.289 15.708,-11.289 7.292,0 13.641,4.717 15.703,11.3 l 4.589,0.006 c 1.369,-0.01 2.717,-0.36 3.892,-1.069 L 6.988,12.578 Z m -46.355,28.475 c 2.427,-0.421 4.871,-0.632 7.317,-0.632 2.45,0 4.903,0.212 7.342,0.634 l 7.26,1.407 -0.105,-0.493 c -0.977,-6.832 -7.117,-11.983 -14.282,-11.983 -7.376,0 -13.467,5.371 -14.31,12.268 z m 58.59,-14.396 c -0.284,0.965 -0.92,1.763 -1.794,2.254 l -22.495,13.592 c -1.939,1.172 -4.158,1.79 -6.407,1.79 -0.031,0 -0.062,-0.001 -0.092,-0.001 l -4.854,-0.006 v -0.005 l -1.742,0.06 -6.905,-1.318 c -4.632,-0.803 -9.329,-0.803 -13.956,0 l -7.099,1.258 -1.138,-0.006 v 0 l -4.759,-0.011 c -2.221,-0.004 -4.403,-0.606 -6.312,-1.739 L -88.243,16.339 c -0.879,-0.491 -1.519,-1.291 -1.804,-2.26 -0.291,-0.991 -0.176,-2.034 0.326,-2.938 l 7.92,-14.255 c 0.791,-1.426 2.419,-2.19 4.014,-1.909 l 9.137,0.93 2.982,-50.533 c 0.063,-2.053 1.763,-3.71 3.825,-3.71 h 46.621 c 1.03,0 1.995,0.403 2.719,1.135 0.705,0.712 1.096,1.649 1.107,2.648 l 2.189,50.457 9.183,-0.927 c 1.593,-0.282 3.222,0.483 4.014,1.909 l 7.919,14.255 c 0.502,0.903 0.618,1.946 0.326,2.938" /></g></g></g></g></svg>

<svg xmlns="http://www.w3.org/2000/svg" xmlns:xlink="http://www.w3.org/1999/xlink" version="1.1" width="170.079pt" height="170.079pt" viewBox="0 0 170.079 170.079">
<defs>
<clipPath id="clip_0">
<path transform="matrix(1,0,0,-1,0,170.079)" d="M0 170.079H170.079V0H0Z"/>
</clipPath>
</defs>
<g id="layer_1" data-name="Witte achtergrond">
<path transform="matrix(1,0,0,-1,0,170.079)" d="M0 0H170.078V170.078H0Z" fill="#ffffff"/>
</g>
<g id="layer_1" data-name="Icoon">
<g clip-path="url(#clip_0)">
<path transform="matrix(1,0,0,-1,148.6635,110.39679)" d="M0 0C-.743-1.239-1.931-2.099-3.342-2.417L-5.913-2.999C-7.309-3.363-8.619-3.908-9.824-4.604-9.343-3.483-8.956-2.329-8.817-.989-8.689 .25-8.85 1.554-9.205 2.836L-10.188 35.443-12.188 35.383-11.344 7.382C-12.328 8.818-13.494 10.011-14.655 10.745-16.021 11.607-17.671 12.188-19.759 12.924-21.494 13.535-23.46 14.228-25.83 15.27-26.346 15.496-26.902 15.768-27.571 16.119-28.001 16.346-28.325 16.598-28.535 16.868-28.839 17.26-29.036 17.709-29.126 18.188-28.789 18.563-28.298 18.804-27.731 18.805L-27.486 18.819C-27.052 18.824-26.538 18.805-25.983 18.771-20.104 18.411-19.134 18.423-18.979 18.44L-18.232 18.504-12.509 46.979-14.47 47.373-19.882 20.45C-20.72 20.48-22.434 20.558-25.861 20.768-26.462 20.805-26.989 20.821-27.541 20.818L-27.784 20.804C-28.071 20.804-28.349 20.766-28.618 20.705L-20.625 40.002C-16.27 50.287-11.226 61.803-9.913 64.196-8.097 60.673-5.77 52.143-6.023 45.855-6.41 36.337-6.452 24.383-3.323 16.357-2.172 13.402-.828 9.161 .561 4.093 .944 2.695 .745 1.241 0 0M-13.046-.552C-13.177-1.813-13.697-2.9-14.416-4.404-15.44-6.545-16.715-9.209-17.483-13.659-17.696-14.898-17.878-19.37-17.77-21.35L-27.317-16.193C-28.722-15.435-29.416-13.772-28.969-12.24L-22.64 9.435C-22.12 9.248-21.631 9.075-21.172 8.914-19.336 8.267-17.886 7.756-16.926 7.15-15.158 6.033-12.751 2.307-13.046-.552M4.662 5.218C3.214 10.499 1.86 14.767 .638 17.902-2.236 25.274-2.115 37.288-1.775 45.684-1.466 53.322-4.31 62.916-6.394 66.627-6.946 67.612-7.878 68.305-8.954 68.569V70.275C-7.63 70.656-6.653 71.865-6.653 73.31-6.653 75.058-8.076 76.481-9.825 76.481-11.574 76.481-12.997 75.058-12.997 73.31-12.997 72.007-12.207 70.888-11.081 70.4V68.512C-11.834 68.282-12.514 67.835-13.021 67.204-14.359 65.542-21.522 48.787-24.548 41.644L-32.583 22.208C-33.142 21.154-33.437 19.968-33.437 18.768-33.437 17.119-32.903 15.562-31.895 14.261-31.31 13.508-30.521 12.867-29.511 12.335-28.793 11.957-28.148 11.644-27.541 11.377-27.228 11.239-26.92 11.106-26.618 10.98L-33.051-11.049C-34.057-14.492-32.495-18.229-29.339-19.934L-19.334-25.336C-18.762-25.625-18.141-25.768-17.521-25.767-16.724-25.767-15.93-25.53-15.249-25.064-14.034-24.232-13.367-22.804-13.509-21.336-13.562-20.781-13.561-19.606-13.529-18.367H-13.518C-13.518-13.077-9.948-8.449-4.907-7.13L-2.405-6.564C.15-5.987 2.299-4.433 3.646-2.188 4.994 .059 5.354 2.688 4.662 5.218" fill="#231f20"/>
<path transform="matrix(1,0,0,-1,106.6137,66.2577)" d="M0 0-13.973 1.412-16.348-53.336H-60.735L-63.966 1.409-77.812 0-84.796 12.571-62.767 25.647C-61.625 26.324-60.322 26.684-58.995 26.687L-54.531 26.697C-52.484 20.172-46.22 15.408-38.823 15.408-31.531 15.408-25.182 20.125-23.12 26.708L-18.531 26.714C-17.162 26.704-15.813 26.354-14.639 25.645L6.988 12.578ZM-46.355 28.475C-43.928 28.054-41.484 27.843-39.038 27.843-36.588 27.843-34.135 28.055-31.696 28.477L-24.436 29.884-24.541 29.391C-25.518 22.56-31.658 17.408-38.823 17.408-46.199 17.408-52.29 22.779-53.133 29.676ZM12.235 14.079C11.951 15.044 11.315 15.842 10.441 16.333L-12.054 29.925C-13.993 31.097-16.211 31.715-18.461 31.715-18.492 31.715-18.522 31.714-18.553 31.714L-23.407 31.708V31.703L-25.149 31.763-32.054 30.445C-36.686 29.642-41.383 29.642-46.01 30.445L-53.109 31.703-54.247 31.697-59.006 31.687C-61.227 31.682-63.409 31.08-65.318 29.947L-88.243 16.339C-89.122 15.848-89.762 15.048-90.047 14.079-90.338 13.088-90.223 12.045-89.721 11.141L-81.801-3.114C-81.01-4.54-79.382-5.304-77.787-5.023L-68.649-4.093-65.667-54.626C-65.604-56.679-63.905-58.336-61.843-58.336H-15.222C-14.192-58.336-13.227-57.933-12.502-57.201-11.798-56.489-11.407-55.552-11.396-54.553L-9.207-4.096-.024-5.023C1.569-5.305 3.198-4.54 3.99-3.114L11.909 11.141C12.411 12.044 12.527 13.087 12.235 14.079" fill="#231f20"/>
</g>
</g>
</svg>
